X: 152
T: Lady Charlotte Campbell's Strathspey
%R: strathspey
B: Urbani & Liston "A Selection of Scotch, English Irish, and Foreign Airs", Edinburgh 1800, p.58 #3
F: http://www.vwml.org/browse/browse-collections-dance-tune-books/browse-urbani1800
Z: 2014 John Chambers <jc:trillian.mit.edu>
N: The 2nd strain has initial repeat but no final repeat; not fixed.
M: C
L: 1/8
K: G
c |\
d>cBG AcTB>c | d>cBG EAFD |\
{Bc}d>cBG Ac Bc/d/ | ecAF G2G :|\
|: d |\
g/f/g/a/ gd Bgdg | {a}gf/e/ Tf>g aAAf |
(g/f/g/a/) gd BgdB | e>cAF {F}G2zd |\
(g/f/g/a/) gd Bgdg | {a}gf/e/ Tf>g aAAf |\
gdbf gdec | BdDF ["or" G/F/G/A/ B/A/B/c/ ["or" TGA Bc |]

%%sep 1 1 500
%%sep 1 1 500
